X: 35
T: 31B. PADDY ON THE TURNPIKE
B: Sam Bayard, "Hill Country Tunes" 1944 #31B
S: Played by Mrs Sarah Armstrong, (near) Derry, PA, Nov 18 1943.
R: reel
M: C
L: 1/8
Z: 2010 John Chambers <jc:trillian.mit.edu>
K: G
   D2G2 G2G2 | BAGA  B2G2 | E2G2 G2G2 | EDEF EDB,C |
   D2G2 G2G2 | BAGA  B2d2 | efgf e2d2 | B2A2 G2z2 :|
|: e2a2 a2a2 | ba^ga b2a2 | e3f  g2ge | d2ge d2d2  |
   e2a2 a2a2 | ba^ga b2a2 | e3f  g2ge | d^/cBA G2z2 :|

%%sep 2 1 500
%%sep 1 1 500

